mobile/apps/auth/assets/custom-icons/icons/runemate.svg

<svg width="500" height="500" viewBox="0 0 500 500" fill="none" xmlns="http://www.w3.org/2000/svg">
<path fill-rule="evenodd" clip-rule="evenodd" d="M226.751 498.3C198.949 495.132 169.401 485.753 137.233 469.885C95.2425 449.171 66.5848 424.223 43.907 388.639C36.4384 376.92 25.3161 357.74 21.4925 349.986C7.0895 320.782 -0.938824 280.054 0.0877896 241.407C1.77293 177.952 26.619 119.872 71.9192 73.4902C112.293 32.152 165.633 6.76734 222.868 1.6511C231.595 0.870965 246.135 0.764558 246.135 1.48064C246.135 1.93667 240.753 21.0275 237.655 31.5624C236.387 35.873 236.32 35.9593 234.51 35.5614C231.784 34.9626 213.556 36.3757 204.874 37.8578C162.428 45.1065 124.052 66.6747 93.1149 100.669C69.0082 127.156 53.3631 153.082 43.8635 182.282C38.8434 197.712 36.5692 210.464 35.4666 229.361C32.9677 272.21 37.5578 304.265 49.9168 330.274C56.1275 343.344 72.2906 370.522 78.9356 379.069C85.9661 388.113 103.637 408.153 104.574 408.145C105.118 408.141 108.181 407.407 111.381 406.515C129.428 401.484 150.351 397.726 171.164 395.778C183.675 394.606 215.458 394.798 228.684 396.124C272.404 400.507 311.635 411.346 347.45 428.937C355.368 432.827 359.666 434.603 360.51 434.335C362.929 433.567 379.008 422.45 385.736 416.893C405.709 400.397 415.815 388.739 431.133 364.528C437.813 353.97 449.15 331.429 452.911 321.225C458.968 304.797 462.632 289.095 463.996 273.722C464.854 264.057 464.454 233.18 463.315 221.048C460.125 187.096 452.924 168.613 427.557 129.274C417.72 114.017 410.769 104.953 401.756 95.6283C383.31 76.5456 360.26 60.9232 335.971 51.0426C331.883 49.3797 328.442 47.9307 328.323 47.8221C328.206 47.7135 329.732 40.3356 331.717 31.4256C333.701 22.5156 335.325 15.1035 335.325 14.9542C335.325 14.5747 346.398 17.9618 351.554 19.9179C378.042 29.9669 402.703 47.2727 426.798 72.722C442.242 89.0338 457.691 109.884 469.106 129.819C482.091 152.499 492.712 184.685 497.183 214.909C503.739 259.232 498.876 299.804 482.341 338.716C468.062 372.324 449.848 400.356 426.861 424.104C413.465 437.944 398.176 450.348 385.413 457.729C382.569 459.374 377.461 462.387 374.062 464.424C352.575 477.306 325.409 488.062 299.778 493.837C283.359 497.535 272.404 498.74 252.921 498.989C240.107 499.151 232.467 498.951 226.751 498.299V498.3ZM250.658 372.583C223.91 370.935 193.144 365.96 168.901 359.361C142.061 352.057 112.785 340.293 92.1526 328.523C85.3469 324.642 85.2052 324.513 85.2112 322.247C85.2144 320.975 86.2296 309.318 87.4669 296.343C88.7047 283.369 89.7199 272.295 89.7226 271.735C89.728 270.891 87.6732 270.491 77.755 269.402C71.1692 268.679 65.6034 267.909 65.3868 267.693C64.9031 267.209 70.6247 206.007 71.2083 205.424C71.4379 205.194 77.3506 205.486 84.348 206.071C91.3459 206.658 97.1635 207.043 97.2775 206.93C97.4241 206.783 105.24 138.151 105.24 137.009C105.24 136.681 116.451 132.729 121.398 131.313C140.11 125.957 174.549 120.788 204.187 118.886L211.035 118.447L212.079 110.044C212.652 105.423 213.206 101.563 213.309 101.467C213.412 101.371 219.867 101.566 227.655 101.9C235.442 102.234 242.03 102.277 242.294 101.995C242.559 101.713 250.61 79.0884 260.186 51.7179C277.372 2.59296 277.62 1.94963 279.401 1.73953C281.737 1.46428 296.561 3.3579 300.747 4.46649C302.524 4.93718 303.946 5.58214 303.905 5.89973C303.866 6.21678 299.232 28.7936 293.609 56.0702C287.986 83.3469 283.515 105.794 283.675 105.955C283.835 106.114 290.924 107.581 299.429 109.214C307.934 110.846 315.014 112.303 315.162 112.451C315.309 112.599 314.958 116.852 314.38 121.902C313.802 126.953 313.467 131.223 313.636 131.391C313.805 131.56 317.265 132.373 321.327 133.198C336.085 136.197 353.447 141.769 371.65 149.35C381.64 153.512 411.156 168.047 412.222 169.33C412.763 169.983 412.113 179.06 409.647 205.232C407.833 224.498 406.484 240.396 406.65 240.563C406.816 240.729 412.503 241.335 419.288 241.91C429.674 242.789 431.624 243.115 431.624 243.978C431.624 245.862 425.876 306.183 425.679 306.375C425.571 306.479 419.594 306.072 412.396 305.471C403.63 304.738 399.296 304.598 399.271 305.045C399.25 305.414 397.868 317.185 396.2 331.203L393.167 356.692L384.766 358.822C358.559 365.469 333.366 369.683 306.24 371.959C294.966 372.905 261.902 373.276 250.659 372.583H250.658ZM295.9 332.528C313.389 331.332 331.219 328.867 348.105 325.311C353.71 324.13 354.789 323.703 355.031 322.569C355.188 321.831 358.249 293.021 361.833 258.549C368.006 199.164 368.288 195.828 367.207 195.038C364.963 193.396 353.606 187.832 345.988 184.641C320.339 173.9 293.014 167.176 259.707 163.411C245.184 161.77 204.997 161.776 189.621 163.422C176.088 164.87 165.028 166.479 153.178 168.722L144.078 170.446L143.71 173.127C142.211 184.051 129.785 296.36 129.934 297.634C130.094 299.008 131.434 299.909 138.848 303.628C169.516 319.013 211.076 329.763 250.335 332.465C261.573 333.238 285.046 333.271 295.9 332.528ZM209.293 247.868C213.116 251.422 217.225 254.754 218.425 255.275C222.584 257.081 227.482 256.099 231.169 252.72C233.265 250.799 233.531 250.203 233.527 247.436C233.52 242.867 231.615 239.606 223.017 229.438C214.526 219.397 210.325 215.996 205.072 214.904C198.109 213.459 193.282 215.561 182.338 224.806C171.668 233.82 169.871 236.288 169.871 241.925C169.871 248.548 177.226 254.548 183.827 253.31C185.416 253.012 188.796 250.918 193.8 247.133C197.962 243.984 201.587 241.407 201.855 241.407C202.122 241.407 205.469 244.315 209.293 247.868ZM303.023 256.671C306.037 259.733 309.796 263.077 311.376 264.103C317.639 268.166 327.342 265.141 328.54 258.751C329.308 254.657 326.916 250.139 318.802 240.361C314.707 235.427 309.988 230.303 308.314 228.975C302.238 224.153 294.909 223.341 288.089 226.736C284.065 228.739 269.2 241.31 267.009 244.563C263.537 249.719 263.854 254.418 267.982 258.993C270.679 261.981 273.483 263.382 276.771 263.382C280.21 263.382 281.705 262.579 289.364 256.624C293.269 253.587 296.707 251.102 297.004 251.102C297.301 251.102 300.01 253.608 303.023 256.671Z" fill="#2ECC71"/>
</svg>

<svg xmlns="http://www.w3.org/2000/svg" fill="none" viewBox="0 0 500 500"><path fill="#2ECC71" fill-rule="evenodd" d="M226.751 498.3c-27.802-3.168-57.35-12.547-89.518-28.415-41.99-20.714-70.648-45.662-93.326-81.246-7.469-11.719-18.59-30.899-22.414-38.653C7.09 320.782-.94 280.054.087 241.407 1.773 177.952 26.619 119.872 71.919 73.49c40.374-41.338 93.714-66.723 150.949-71.839 8.727-.78 23.267-.886 23.267-.17 0 .456-5.382 19.546-8.48 30.081-1.268 4.311-1.335 4.397-3.145 4-2.726-.6-20.954.814-29.636 2.296-42.446 7.248-80.822 28.817-111.76 62.811-24.106 26.487-39.75 52.413-49.25 81.613-5.02 15.43-7.295 28.182-8.397 47.079-2.5 42.849 2.09 74.904 14.45 100.913 6.21 13.07 22.374 40.248 29.019 48.795 7.03 9.044 24.701 29.084 25.638 29.076.544-.004 3.607-.738 6.807-1.63 18.047-5.031 38.97-8.789 59.783-10.737 12.511-1.172 44.294-.98 57.52.346 43.72 4.383 82.951 15.222 118.766 32.813 7.918 3.89 12.216 5.666 13.06 5.398 2.419-.768 18.498-11.885 25.226-17.442 19.973-16.496 30.079-28.154 45.397-52.365 6.68-10.558 18.017-33.099 21.778-43.303 6.057-16.428 9.721-32.13 11.085-47.503.858-9.665.458-40.542-.681-52.674-3.19-33.952-10.391-52.435-35.758-91.774-9.837-15.257-16.788-24.321-25.801-33.646-18.446-19.082-41.496-34.705-65.785-44.585-4.088-1.663-7.529-3.112-7.648-3.22-.117-.11 1.409-7.487 3.394-16.397 1.984-8.91 3.608-16.322 3.608-16.472 0-.38 11.073 3.008 16.229 4.964 26.488 10.049 51.149 27.355 75.244 52.804 15.444 16.312 30.893 37.162 42.308 57.097 12.985 22.68 23.606 54.866 28.077 85.09 6.556 44.323 1.693 84.895-14.842 123.807-14.279 33.608-32.493 61.64-55.48 85.388-13.396 13.84-28.685 26.244-41.448 33.625a1038.008 1038.008 0 0 0-11.351 6.695c-21.487 12.882-48.653 23.638-74.284 29.413-16.419 3.698-27.374 4.903-46.857 5.152-12.814.162-20.454-.038-26.17-.69v.001Zm23.907-125.717c-26.748-1.648-57.514-6.623-81.757-13.222-26.84-7.304-56.116-19.068-76.748-30.838-6.806-3.881-6.948-4.01-6.942-6.276.003-1.272 1.019-12.929 2.256-25.904 1.238-12.974 2.253-24.048 2.256-24.608.005-.844-2.05-1.244-11.968-2.333-6.586-.723-12.152-1.493-12.368-1.709-.484-.484 5.238-61.686 5.821-62.269.23-.23 6.143.062 13.14.647 6.998.587 12.816.972 12.93.859.146-.147 7.962-68.779 7.962-69.921 0-.328 11.211-4.28 16.158-5.696 18.712-5.356 53.151-10.525 82.789-12.427l6.848-.439 1.044-8.403c.573-4.621 1.127-8.481 1.23-8.577.103-.096 6.558.099 14.346.433 7.787.334 14.375.377 14.639.095.265-.282 8.316-22.907 17.892-50.277C277.372 2.593 277.62 1.95 279.401 1.74c2.336-.276 17.16 1.618 21.346 2.726 1.777.471 3.199 1.116 3.158 1.434-.039.317-4.673 22.894-10.296 50.17-5.623 27.277-10.094 49.724-9.934 49.885.16.159 7.249 1.626 15.754 3.259 8.505 1.632 15.585 3.089 15.733 3.237.147.148-.204 4.401-.782 9.451-.578 5.051-.913 9.321-.744 9.489.169.169 3.629.982 7.691 1.807 14.758 2.999 32.12 8.571 50.323 16.152 9.99 4.162 39.506 18.697 40.572 19.98.541.653-.109 9.73-2.575 35.902-1.814 19.266-3.163 35.164-2.997 35.331.166.166 5.853.772 12.638 1.347 10.386.879 12.336 1.205 12.336 2.068 0 1.884-5.748 62.205-5.945 62.397-.108.104-6.085-.303-13.283-.904-8.766-.733-13.1-.873-13.125-.426-.021.369-1.403 12.14-3.071 26.158l-3.033 25.489-8.401 2.13c-26.207 6.647-51.4 10.861-78.526 13.137-11.274.946-44.338 1.317-55.581.624h-.001Zm45.242-40.055c17.489-1.196 35.319-3.661 52.205-7.217 5.605-1.181 6.684-1.608 6.926-2.742.157-.738 3.218-29.548 6.802-64.02 6.173-59.385 6.455-62.721 5.374-63.511-2.244-1.642-13.601-7.206-21.219-10.397-25.649-10.741-52.974-17.465-86.281-21.23-14.523-1.641-54.71-1.635-70.086.011-13.533 1.448-24.593 3.057-36.443 5.3l-9.1 1.724-.368 2.681c-1.499 10.924-13.925 123.233-13.776 124.507.16 1.374 1.5 2.275 8.914 5.994 30.668 15.385 72.228 26.135 111.487 28.837 11.238.773 34.711.806 45.565.063Zm-86.607-84.66c3.823 3.554 7.932 6.886 9.132 7.407 4.159 1.806 9.057.824 12.744-2.555 2.096-1.921 2.362-2.517 2.358-5.284-.007-4.569-1.912-7.83-10.51-17.998-8.491-10.041-12.692-13.442-17.945-14.534-6.963-1.445-11.79.657-22.734 9.902-10.67 9.014-12.467 11.482-12.467 17.119 0 6.623 7.355 12.623 13.956 11.385 1.589-.298 4.969-2.392 9.973-6.177 4.162-3.149 7.787-5.726 8.055-5.726.267 0 3.614 2.908 7.438 6.461Zm93.73 8.803c3.014 3.062 6.773 6.406 8.353 7.432 6.263 4.063 15.966 1.038 17.164-5.352.768-4.094-1.624-8.612-9.738-18.39-4.095-4.934-8.814-10.058-10.488-11.386-6.076-4.822-13.405-5.634-20.225-2.239-4.024 2.003-18.889 14.574-21.08 17.827-3.472 5.156-3.155 9.855.973 14.43 2.697 2.988 5.501 4.389 8.789 4.389 3.439 0 4.934-.803 12.593-6.758 3.905-3.037 7.343-5.522 7.64-5.522.297 0 3.006 2.506 6.019 5.569Z" clip-rule="evenodd"/></svg>
